X:47
T:Peggy Lettermore
C:Traditional
M:2/4
R:Polka
L:1/8
K:G
Bd BG | Bd dB/B/ | Bd cB | A2 A2 |
Bd BG | Bd gd/d/ | dB AB/A/ | G2 G2 :|
|: g2 dB/B/ | Bc dg/g/ | gd cB | A2 A2 |
gg dB/B/ | Bc dd/d/ | dB AB/A/ | G2 G2 :|

%%newpage
%%scale .7
%%staffsep 30

